assets/images/tiktok.svg

<svg width="24" height="24" viewBox="0 0 24 24" fill="none" xmlns="http://www.w3.org/2000/svg">
<path d="M19.619 2H4.38095C3.0681 2 2 3.0681 2 4.38095V19.619C2 20.9319 3.0681 22 4.38095 22H19.619C20.9319 22 22 20.9319 22 19.619V4.38095C22 3.0681 20.9319 2 19.619 2ZM17.7171 10.7252C17.609 10.7352 17.4995 10.7419 17.3886 10.7419C16.1395 10.7419 15.0419 10.0995 14.4033 9.12857C14.4033 11.6757 14.4033 14.5738 14.4033 14.6224C14.4033 16.8648 12.5852 18.6829 10.3429 18.6829C8.10048 18.6829 6.28238 16.8648 6.28238 14.6224C6.28238 12.38 8.10048 10.5619 10.3429 10.5619C10.4276 10.5619 10.5105 10.5695 10.5938 10.5748V12.5757C10.5105 12.5657 10.4286 12.5505 10.3429 12.5505C9.1981 12.5505 8.27048 13.4781 8.27048 14.6229C8.27048 15.7676 9.1981 16.6952 10.3429 16.6952C11.4876 16.6952 12.4986 15.7933 12.4986 14.6486C12.4986 14.6033 12.5186 5.3181 12.5186 5.3181H14.431C14.611 7.0281 15.9914 8.37762 17.7171 8.50143V10.7252Z" fill="white"/>
</svg>

<svg width="24" height="24" fill="none" xmlns="http://www.w3.org/2000/svg"><path d="M19.619 2H4.381A2.384 2.384 0 002 4.381v15.238A2.384 2.384 0 004.381 22h15.238A2.384 2.384 0 0022 19.619V4.381A2.384 2.384 0 0019.619 2zm-1.902 8.725a3.568 3.568 0 01-3.314-1.597v5.494a4.06 4.06 0 11-4.06-4.06c.085 0 .168.008.25.013v2c-.082-.01-.164-.024-.25-.024a2.072 2.072 0 100 4.144c1.145 0 2.156-.902 2.156-2.046l.02-9.33h1.912A3.566 3.566 0 0017.717 8.5v2.224z" fill="#fff"/></svg>
